X: 89
P: Longways for as many as will
M: C|
L: 1/8
K: G
V: 1
|:\
cc (c/B/)A Bedc | B2A2 G4 |
^cccc dD DD | cc cB/A/ Bg2g |\
ac cB/A/ Bedc | B2A2 G4 |
V: 2 clef=bass middle=d
|: g2d2 G4 | b2g2 g2f2 | g2d2 ed^cB | A2a2 d4 :| d2e2 f2d2 | g2fg d4 | g4 e4 | f4 d4 | e2f2
ec'ba | g2d'2 g4 | g4 f4 | e2f2 g4 | f2d2 gc'ba | g2d'2 g4 | g2d2 G2z2 | g2d2 G2z2 | f2d2 gcBA | G2B2 G4 |]

